playlet-lib/src/images/icons/edit.svg

<svg xmlns="http://www.w3.org/2000/svg" viewBox="0 0 26 26" width="52px" height="52px">
    <path fill="#FFFFFF" d="M 20.09375 0.25 C 19.5 0.246094 18.917969 0.457031 18.46875 0.90625 L 17.46875 1.9375 L 24.0625 8.5625 L 25.0625 7.53125 C 25.964844 6.628906 25.972656 5.164063 25.0625 4.25 L 21.75 0.9375 C 21.292969 0.480469 20.6875 0.253906 20.09375 0.25 Z M 16.34375 2.84375 L 14.78125 4.34375 L 21.65625 11.21875 L 23.25 9.75 Z M 13.78125 5.4375 L 2.96875 16.15625 C 2.71875 16.285156 2.539063 16.511719 2.46875 16.78125 L 0.15625 24.625 C 0.0507813 24.96875 0.144531 25.347656 0.398438 25.601563 C 0.652344 25.855469 1.03125 25.949219 1.375 25.84375 L 9.21875 23.53125 C 9.582031 23.476563 9.882813 23.222656 10 22.875 L 20.65625 12.3125 L 19.1875 10.84375 L 8.25 21.8125 L 3.84375 23.09375 L 2.90625 22.15625 L 4.25 17.5625 L 15.09375 6.75 Z M 16.15625 7.84375 L 5.1875 18.84375 L 6.78125 19.1875 L 7 20.65625 L 18 9.6875 Z" />
</svg>

<svg xmlns="http://www.w3.org/2000/svg" width="52" height="52" viewBox="0 0 26 26">
    <path fill="#FFF" d="M20.094.25a2.25 2.25 0 0 0-1.625.656l-1 1.031 6.593 6.626 1-1.032a2.32 2.32 0 0 0 0-3.281L21.75.938A2.36 2.36 0 0 0 20.094.25m-3.75 2.594-1.563 1.5 6.875 6.875L23.25 9.75ZM13.78 5.438 2.97 16.156a.98.98 0 0 0-.5.625L.156 24.625a.98.98 0 0 0 .242.977.98.98 0 0 0 .977.242l7.844-2.313a.98.98 0 0 0 .781-.656l10.656-10.562-1.468-1.47L8.25 21.814l-4.406 1.28-.938-.937 1.344-4.593L15.094 6.75Zm2.375 2.406-10.968 11 1.593.343.219 1.47 11-10.97Z"/>
</svg>
